!!!COM: Jules Massenet
!!!CNT: Francais
!!!TXO: Francais
!!!OTL: "Automne (No. 1 from Poe\me d'octobre)"
!!!LYR: Collin
!!!OPR: 
!!!OPS: Op. 
!!!ONM: No.
!!!ENC: Emily Thomas
!!!YOR: CD Sheet Music French Art Songs, The Ultimate Collection
!!!YOR: CD Sheet Music, LLC 2003
!!!ODT: 1876/
!!NB: Vocal melody and text encoded.
**kern	**silbe
=1	=1
*clefG2	*
*k[b-e-a-d-]	*
*M3/4	*
*MM[Avec du mouv! Et soutenu.]	*
2.r	.
=2	=2
2.r	.
=3	=3
{4a-	{Pro-
4b-	-fi-
4cc	-tons
=4	=4
4.dd-	bien
8cc	des
8b-	jours
8a-	d'au-
=5	=5
2cc	-tom-
8b-}	-ne}
8r	.
=6	=6
{4a-	{ou\,
4g	dans
4f	les
=7	=7
2a-	cieux,
8g	Semble
8f	er-
=8	=8
4e-	-rer
4a-	la
4cc	lan-
=9	=9
8ee-	-gueur
8ff	plain-
8ff	-ti-
8ee	-ve
8cc	des
8a	a-
=10	=10
2.b-}	-dieux...}
=11	=11
{4a-	{Pro-
4b-	-fi-
4cc	-tons
=12	=12
4.dd-	bien
8cc	des
8b-	jours
8a-	d'au-
=13	=13
2cc	-tom-
4b-}	-ne...}
=14	=14
*M2/4	*
*MM[Beaucoup plus anime/.]	*
8r	.
{8dd-	{Je
8cc	me
8b-	sou-
=15	=15
2dd-}	-viens}
=16	=16
8r	.
{8dd-	{des
8cc	ten-
8b-	-dres
=17	=17
4ff	cho-
4ff	-ses
=18	=18
8ff	Que
8ee-	se
8dd-	ra-
8cc	-con-
=19	=19
4b-	-taient
8cc	les
8dd-	a-
=20	=20
[4f	-mants;
8f]}	|}
8r	.
=21	=21
{8b-	{Ils
8cc	fai-
4dd-	-saient
=22	=22
8dd-	d'e/-
8cc	-ter-
8b-	-nels
8dd-	ser-
=23	=23
4cc}	-ments...}
8r	.
{8a-	{Tout
=24	=24
4a-}	bas...}
8r	.
{8ff	{Quand
=25	=25
8ee-	fleu-
8dd	-a-ris-
8cc	-saient
8b-	les
=26	=26
[2dd-	ro-
=27	=27
4dd-]	|
8cc}	-ses!}
8r	.
=28	=28
*M3/4	*
{4a-	{Pro-
4b-	-fi-
4cc	-tons
=29	=29
4.dd-	bien
8cc	des
8b-	jours
8a-	d'au-
=30	=30
2cc	-tom-
8b-}	-ne}
8r	.
=31	=31
{4a-	{ou\,
4g	dans
4f	les
=32	=32
2a-}	cieux,}
{8g	{Semble
8f	er-
=33	=33
4e-	-rer
4a-	la
4cc	lan-
=34	=34
8ee-	-gueur
8ff	plain-
8ff	-ti-
8ee-	-ve
8cc	des
8a-	a-
=35	=35
2.b-}	-dieux...}
=36	=36
{4a-	{Pro-
4b-	-fi-
4cc	-tons
=37	=37
4.dd-	bien
8cc	des
8b-	jours
8a-	d'au-
=38	=38
2cc	-tom-
4b-}	-ne!..}
=39	=39
*M2/4	*
*MM[Beaucoup plus anime/.]	*
8r	.
{8dd-	{Ha/-
4dd-}	-las!}
=40	=40
4r	.
{8dd-	{le
8dd-	des-
=41	=41
4dd-	-tin
8cc	qui
8b-	nous
=42	=42
4ff	pous-
4ff}	-se}
=43	=43
8r	.
{8ee-	{Est
8dd-	quel-
8cc	-que-
=44	=44
8b-	-fois
8b-	si
8cc	ci
8dd-	gou-
=45	=45
[4f	-reux!..
8f]}	|}
8r	.
=46	=46
8r	.
{8b-	{Re-
8cc	-vien-
8dd-	-drez-
=47	=47
8dd-	-vous,
8cc	beaux
8b-	a-
8dd-	-mou-
=48	=48
2cc}	-reux,}
=49	=49
{4a-	{Quand
8a-	re-
8ff	-vien-
=50	=50
8ee-	-dra
8dd-	la
8cc	sai-
8b-	-son
=51	=51
[2dd-	dou-
=52	=52
4dd-]	|
8cc}	-ce?..}
8r	.
=53	=53
*M3/4	*
{4a-	{Pro-
4b-	-fi-
4cc	-tons
=54	=54
4.dd-	bien
8cc	des
8b-	jours
8a-	d'au-
=55	=55
2cc	-tom-
4b-}	-ne!..}
==	==
*-	*-
